!!!COM: Bach, Johann Sebastian
!!!OPR: Joh. Seb. Bachs vierstimmige Choralgesänge
!!!XEN: Four-part Chorales
!!!OTL: 4. Ach lieben Christen, seid getrost
!!!SCT: BWV 256
!!!SCA: Thematisch-systematisches Verzeichnis der musikalischen Werke Johann Sebastian Bach: Bach-Werke-Verzeichnis (Schmieder)
!!!YOR: Bach Gesellschaft Edition xxxix
!!!ENC: Steven Rasmussen
!!!CDT: 1685/3//-1750/7/28/
!!!OCY: Deutschland
!!!YEC: Copyright (c) 1994, 2000 Center for Computer Assisted Research in the Humanities
!!!YEM: Rights to all derivative editions reserved
!!!YEN: United States of America
**kern	**kern	**kern	**kern	**silbe
*I:[BASSO]	*I:[TENORE]	*I:[ALTO]	*I:[SOPRANO]	*I:[SOPRANO]
*>[A,A,B]	*>[A,A,B]	*>[A,A,B]	*>[A,A,B]	*
*>A	*>A	*>A	*>A	*
*clefF4	*clefGv2	*clefG2	*clefG2	*
*k[]	*k[]	*k[]	*k[]	*
*C:	*C:	*C:	*C:	*
*M4/4	*M4/4	*M4/4	*M4/4	*
4A	4c	8eL	4cc	Achweil
.	.	8fJ	.	.
=1	=1	=1	=1	=1
4E	4c	4g	4cc	lie-uns
4F	4c	4f	8aL	-bender
.	.	.	8bJ	.
8EL	4c	4g	8ccL	Chri-Herr
8DJ	.	.	8ddJ	.
4C	4c	4g	4ee	-sten,heim-
=2	=2	=2	=2	=2
4F	4c	4a	8ddL	seid-su-
.	.	.	16eeL	.
.	.	.	16ffJJ	.
4G	4B	8gL	4dd	ge--chen
.	.	8fJ	.	.
4C;	4G;	4e;	4cc;	-trost;tut?
4A	4A	4f#	4cc	wielasst
=3	=3	=3	=3	=3
4G	4d	4g	4b	tutuns
4d	4d	4f	8aL	ihrvon
.	.	.	8bJ	.
8AL	8cL	4e	4cc	soHer-
8GJ	8BJ	.	.	.
8FL	4A	4a	8ddL	ver--zen
8EJ	.	.	8ccJ	.
=4	=4	=4	=4	=4
4D	4f	4a	2b	-za-sa-
4E	8eL	4g#	.	.
.	8dJ	.	.	.
4AA;	4c#;	4e;	4a;	-gen,-gen:
=:|!	=:|!	=:|!	=:|!	=:|!
*>B	*>B	*>B	*>B	*
4GG	4B	4gn	4dd	Die
=5	=5	=5	=5	=5
8CL	4c	4g	4ee	Straf'
8DJ	.	.	.	.
8EL	8GL	4g	4ee	wir
8FJ	8AJ	.	.	.
4G	4B	8dL	8bL	wohl
.	.	8eJ	8ccJ	.
4F	8AL	4f	4dd	ver-
.	8BJ	.	.	.
=6	=6	=6	=6	=6
8AAL	8cL	4e	4cc	-die-
8BBJ	8dJ	.	.	.
8CL	4e	4a	4cc	-net
8DJ	.	.	.	.
4E;	4e;	4g#;	4b;	ha'n,
8AL	4e	4a	4cc	solch'
8GJ	.	.	.	.
=7	=7	=7	=7	=7
8F#L	4A	8aL	4dd	muss
8EJ	.	8gJ	.	.
4D	4d	4f#	8aL	be-
.	.	.	8bJ	.
8EL	8GL	4e	4cc	-ken-
8F#J	8AJ	.	.	.
4G	8BL	8dL	4b	-nen
.	8dJ	8gJ	.	.
=8	=8	=8	=8	=8
4C	4e	8gL	16aLL	Je-
.	.	.	16bJ	.
.	.	8eJ	8ccJ	.
4D	8dL	4f#	4a	-der-
.	8cJ	.	.	.
4GG;	4B;	4d;	4g;	-mann;
8EL	8GL	4e	4cc	Nie-
8F#J	8AJ	.	.	.
=9	=9	=9	=9	=9
4G	8BL	8dL	4b	-mand
.	8cJ	8eJ	.	.
8F#L	4d	8f#L	8aL	darf
8G#J	.	8fnJ	8bJ	.
8AL	8cL	4e	4cc	sich
8GnJ	8BJ	.	.	.
8FnL	8AL	4a	8ddL	aus-
8EJ	8cJ	.	8ccJ	.
=10	=10	=10	=10	=10
8DL	8fL	4a	2b	-schlie-
8BBJ	8d	.	.	.
4E	8B	4g#	.	.
.	8eJ	.	.	.
4AA;	4c#;	4e;	4a;	-ssen.
==|!	==|!	==|!	==|!	==|!
*-	*-	*-	*-	*-
!!!RWG: Key is interpreted using the Humdrum key tool.
!!!URL-pdf: https://s9.imslp.org/files/imglnks/usimg/6/6b/IMSLP24489-PMLP09471-CCARH_Bach_Chorales.pdf#page=2 Musedata edition
!!!URL-pdf: https://s9.imslp.org/files/imglnks/usimg/7/7a/IMSLP04155-Bach_-_BGA_253-438.pdf#page=4 	Bach-Gesellschaft Ausgabe, Band 39 (pp.175-276) Leipzig: Breitkopf und Härtel, 1892. Plate B.W. XXXIX.
!!!END: 1994/05/03
!!!EMD: Converted from MuseData to Humdrum Dec 19, 2000, by Andreas Kornstaedt using muse2kern.
!!!EED: Craig Stuart Sapp
!!!EEV: 2024/03/31
!!!ONB: Some non-unicode characters
!!!filter-keyboard: satb2gs
